X: 1
T: Fisher's Hornpipe
M: 4/4
K: D
A2| "D"dAFA "G"GBAG| "D"FAFA "G"GBAG| "D"FDFD "A7"GEGE| "D"FDFD "A7"E2 A2|
       "D"dAFA "G"GBAG| "D"FAFA "G"GBAG| "D"FGAB "A7"cdec| "D"d2f2 d2 :|
|:cd| "A7"ecAc efge| "D"fdAd fgaf| "A7"ecAc efgf| "E7"edcB "A7"A2A2|
    "G"BGDG BcdB| "D"AFDF A2>A2| "G"BdcB "A7"AGFE| "D"D2F2 D2 :|
